svgs/thin/money-bills-simple.svg

<svg xmlns="http://www.w3.org/2000/svg" viewBox="0 0 640 512"><!--! Font Awesome Pro 6.6.0 by @fontawesome - https://fontawesome.com License - https://fontawesome.com/license (Commercial License) Copyright 2024 Fonticons, Inc. --><path d="M576 48c26.5 0 48 21.5 48 48l0 224c0 26.5-21.5 48-48 48l-416 0c-26.5 0-48-21.5-48-48l0-224c0-26.5 21.5-48 48-48l416 0zM160 32c-35.3 0-64 28.7-64 64l0 224c0 35.3 28.7 64 64 64l416 0c35.3 0 64-28.7 64-64l0-224c0-35.3-28.7-64-64-64L160 32zM64 128c-35.3 0-64 28.7-64 64L0 416c0 35.3 28.7 64 64 64l416 0c35.3 0 64-28.7 64-64l-16 0c0 26.5-21.5 48-48 48L64 464c-26.5 0-48-21.5-48-48l0-224c0-26.5 21.5-48 48-48l0-16zm224 80a80 80 0 1 1 160 0 80 80 0 1 1 -160 0zm176 0a96 96 0 1 0 -192 0 96 96 0 1 0 192 0z"/></svg>

<svg xmlns="http://www.w3.org/2000/svg" viewBox="0 0 640 512"><!--! Font Awesome Pro 6.4.0 by @fontawesome - https://fontawesome.com License - https://fontawesome.com/license (Commercial License) Copyright 2023 Fonticons, Inc. --><path d="M576 48c26.5 0 48 21.5 48 48V320c0 26.5-21.5 48-48 48H160c-26.5 0-48-21.5-48-48V96c0-26.5 21.5-48 48-48H576zM160 32c-35.3 0-64 28.7-64 64V320c0 35.3 28.7 64 64 64H576c35.3 0 64-28.7 64-64V96c0-35.3-28.7-64-64-64H160zM64 128c-35.3 0-64 28.7-64 64V416c0 35.3 28.7 64 64 64H480c35.3 0 64-28.7 64-64H528c0 26.5-21.5 48-48 48H64c-26.5 0-48-21.5-48-48V192c0-26.5 21.5-48 48-48V128zm224 80a80 80 0 1 1 160 0 80 80 0 1 1 -160 0zm176 0a96 96 0 1 0 -192 0 96 96 0 1 0 192 0z"/></svg>
